X: 1019
T: The Gossips Frolick.
%R: jig
B: Henry Playford "Apollo's Banquet", London 1687 (5th Edition)
F: https://archive.org/details/apollosbanquetco01rugg
Z: 2017 John Chambers <jc:trillian.mit.edu>
M: 6/4
L: 1/4
K: D
% - - - - - - - - - -
F |\
def efd | c2A d2F |\
GAG ABG | F3 E2e |\
efg g>fe | f3 e2B |
efg g>fe | f3 e2 !segno!e |\
fga A2A | Bcd F2F |\
GAB A2f | e3 Hd2 |]
% - - - - - - - - - -

%%sep 1 1 500
%%sep 1 1 500

